X: 19575
T: James Murray's
R: reel
M: 4/4
K: Gmajor
BAGB dBGA|BAGB A~E3|BAGB dBGE|DEGA B~G3|
BAGB dBGA|BAGB AEGE|DEGA ~G3e|dega b~g3||
b~g3 abge|dBGA Bdeg|b~g3 abge|dega b~g3|
gabg abge|dBGA Bcde|dBAc BAGE|DEGA B~G3||

